assets/efishery/udang.svg

<svg width="24" height="24" viewBox="0 0 24 24" fill="none" xmlns="http://www.w3.org/2000/svg">
<path d="M14.5 8C14.5 8.27614 14.2761 8.5 14 8.5C13.7239 8.5 13.5 8.27614 13.5 8C13.5 7.72386 13.7239 7.5 14 7.5C14.2761 7.5 14.5 7.72386 14.5 8Z" fill="#1D1D1D"/>
<path fill-rule="evenodd" clip-rule="evenodd" d="M14.5 2.25C14.0858 2.25 13.75 2.58579 13.75 3C13.75 3.41421 14.0858 3.75 14.5 3.75H20C20.3394 3.75 20.5215 3.85288 20.612 3.93778C20.7064 4.02626 20.75 4.13873 20.75 4.25C20.75 4.36127 20.7064 4.47374 20.612 4.56222C20.5215 4.64712 20.3394 4.75 20 4.75H9.5C9.33499 4.75 9.10619 4.79607 8.89288 4.85014C8.65187 4.91122 8.34851 5.00416 8.00536 5.13548C7.32029 5.39767 6.45761 5.8202 5.60869 6.46538C5.26046 6.73003 4.9153 7.03184 4.5863 7.37424C4.54509 7.40155 4.50598 7.43336 4.46967 7.46967C4.41806 7.52128 4.37555 7.57853 4.34213 7.63945C3.16453 8.97483 2.25 10.8713 2.25 13.5C2.25 13.5147 2.25043 13.5294 2.25129 13.544C2.34324 15.1071 3.02483 17.3496 4.79208 19.0526C6.56148 20.7576 9.32791 21.8345 13.4059 21.2713C13.8932 21.4644 14.4512 21.6493 15.004 21.7763C15.6146 21.9166 16.2942 22.0044 16.8801 21.9011C17.1801 21.8483 17.5006 21.7377 17.7727 21.5159C18.0583 21.2831 18.2454 20.9637 18.3156 20.5852C18.4269 19.9844 18.2372 19.2837 17.8501 18.5046C18.0451 18.1209 18.2208 17.6989 18.3311 17.2838C18.4673 16.7714 18.556 16.0789 18.2241 15.5056C17.835 14.8337 17.0894 14.6513 16.3019 14.7352C15.5396 14.8163 14.5464 15.1528 13.2702 15.7772C12.5964 15.8797 11.8904 15.895 11.2581 15.7956C11.181 15.7673 11.0979 15.7514 11.0113 15.7501C10.8906 15.7244 10.7733 15.694 10.6603 15.6589C9.88791 15.4186 9.39518 14.9884 9.22761 14.3181C9.03886 13.5631 9.24814 12.8516 9.70776 12.365C10.1619 11.8841 10.9056 11.5779 11.8767 11.7398C11.9174 11.7466 11.9587 11.75 12 11.75C13.105 11.75 14.7446 11.4521 16.081 10.5138C17.3101 9.6508 18.2371 8.27269 18.2772 6.25H20C20.6606 6.25 21.2285 6.04038 21.638 5.65653C22.0436 5.27626 22.25 4.76373 22.25 4.25C22.25 3.73627 22.0436 3.22374 21.638 2.84347C21.2285 2.45962 20.6606 2.25 20 2.25H14.5ZM5.06805 9.12871C4.33643 10.1369 3.79945 11.4757 3.75323 13.25H7.69521C7.75256 12.8514 7.87599 12.4698 8.05872 12.1194L5.06805 9.12871ZM9.02585 10.9652C9.81389 10.3568 10.8746 10.0693 12.0572 10.2497C12.9502 10.2392 14.2268 9.98289 15.219 9.28619C16.0611 8.69496 16.7387 7.7642 16.7769 6.25H9.5C9.51548 6.25 9.51478 6.25012 9.49591 6.25336C9.466 6.25849 9.39047 6.27145 9.26141 6.30416C9.0786 6.3505 8.83118 6.42553 8.54151 6.53639C7.96096 6.75858 7.22989 7.1173 6.51631 7.65962C6.36951 7.77119 6.22326 7.8906 6.07904 8.01838L9.02585 10.9652ZM10.2147 17.0911L10.25 17.102V19.8726C8.87043 19.7382 7.77631 19.3423 6.91183 18.8089L9.22676 16.6483C9.53498 16.8384 9.87019 16.984 10.2147 17.0911ZM11.75 17.352V19.9143C12.2634 19.8958 12.809 19.8453 13.3887 19.7583C13.524 19.738 13.6622 19.7551 13.7885 19.8077C14.2584 20.0035 14.8114 20.193 15.3398 20.3144C15.8854 20.4397 16.3308 20.4748 16.6199 20.4239C16.7574 20.3996 16.8119 20.3639 16.825 20.3532C16.828 20.3508 16.8291 20.3495 16.8292 20.3493L16.8303 20.3474C16.8307 20.3465 16.8313 20.3453 16.8319 20.3439C16.8324 20.3429 16.8328 20.3417 16.8333 20.3404C16.8352 20.3351 16.8381 20.3259 16.8407 20.3117C16.8638 20.1869 16.8399 19.8661 16.5446 19.25H14.5C14.0858 19.25 13.75 18.9142 13.75 18.5C13.75 18.0858 14.0858 17.75 14.5 17.75H16.5504C16.6923 17.4616 16.8101 17.167 16.8814 16.8985C16.9933 16.4776 16.9458 16.2948 16.9269 16.259C16.9231 16.2566 16.9148 16.2521 16.9001 16.2468C16.8461 16.2272 16.7146 16.1997 16.4606 16.2268C15.9433 16.2818 15.107 16.5409 13.8329 17.172C13.7668 17.2048 13.6961 17.2277 13.6233 17.2398C13.0334 17.3381 12.3899 17.3853 11.75 17.352ZM8.15495 15.5968L5.72438 17.8653C4.78854 16.9194 4.24008 15.7751 3.96502 14.75H7.79015C7.87583 15.0656 8.00013 15.3469 8.15495 15.5968Z" fill="#1D1D1D"/>
</svg>

<svg viewBox="0 0 24 24" xmlns="http://www.w3.org/2000/svg">
  <path d="M14.5 8a.5.5 0 1 1-1 0 .5.5 0 0 1 1 0z"/>
  <path fill-rule="evenodd" clip-rule="evenodd" d="M14.5 2.25a.75.75 0 0 0 0 1.5H20c.34 0 .521.103.612.188a.424.424 0 0 1 0 .624c-.09.085-.273.188-.612.188H9.5a2.77 2.77 0 0 0-.607.1 8.069 8.069 0 0 0-.888.285 9.775 9.775 0 0 0-2.396 1.33 8.81 8.81 0 0 0-1.023.91.754.754 0 0 0-.244.264C3.165 8.975 2.25 10.871 2.25 13.5l.001.044c.092 1.563.774 3.806 2.541 5.509 1.77 1.705 4.536 2.781 8.614 2.218.487.193 1.045.378 1.598.505.61.14 1.29.228 1.876.125.3-.053.62-.163.893-.385a1.54 1.54 0 0 0 .543-.93c.11-.602-.079-1.302-.466-2.081.195-.384.37-.806.481-1.221.136-.513.225-1.205-.107-1.778-.389-.672-1.135-.855-1.922-.77-.762.08-1.756.417-3.032 1.041a6.734 6.734 0 0 1-2.012.019.748.748 0 0 0-.247-.046 3.975 3.975 0 0 1-.35-.091c-.773-.24-1.266-.67-1.433-1.34-.19-.756.02-1.467.48-1.954.454-.48 1.198-.787 2.169-.625.04.007.082.01.123.01 1.105 0 2.745-.298 4.081-1.236 1.23-.863 2.156-2.241 2.196-4.264H20c.66 0 1.229-.21 1.638-.593a1.924 1.924 0 0 0 0-2.814c-.41-.383-.977-.593-1.638-.593h-5.5zM5.068 9.129c-.732 1.008-1.269 2.347-1.315 4.121h3.942c.058-.399.181-.78.364-1.13l-2.99-2.991zm3.958 1.836c.788-.608 1.849-.896 3.031-.715.893-.01 2.17-.267 3.162-.964.842-.591 1.52-1.522 1.558-3.036H9.5c.015 0 .015 0-.004.003-.03.005-.106.018-.235.051-.182.046-.43.122-.72.232-.58.223-1.311.581-2.025 1.124a7.528 7.528 0 0 0-.437.358l2.947 2.947zm1.189 6.126.035.011v2.77c-1.38-.134-2.474-.53-3.338-1.063l2.315-2.16c.308.19.643.335.988.442zm1.535.261v2.562a14.585 14.585 0 0 0 1.639-.156.75.75 0 0 1 .4.05c.47.195 1.022.385 1.55.506.546.126.992.16 1.28.11a.473.473 0 0 0 .21-.075l.001-.002.002-.003.001-.004a.18.18 0 0 0 .008-.028c.023-.125-.001-.446-.296-1.062H14.5a.75.75 0 0 1 0-1.5h2.05c.142-.288.26-.583.331-.852.112-.42.065-.603.046-.639a.142.142 0 0 0-.027-.012c-.054-.02-.185-.047-.44-.02-.517.055-1.353.314-2.627.945a.748.748 0 0 1-.21.068 8.76 8.76 0 0 1-1.873.112zm-3.595-1.755-2.43 2.268c-.936-.946-1.485-2.09-1.76-3.115H7.79c.086.316.21.597.365.847z"/>
</svg>
